X:1
T: Dr. Alan G. Macpherson's 75th Birthday
C: Ewan Macpherson
R:Jig
Q:180
K:D
M:6/8
L:1/16
A2|d2c2d2 f2e2d2|e2g2f2 e4A2|a4a2 g2e2c2|d2f2d2 e4A2|d2c2d2 f2e2d2|e2g2f2 e4A2|f2a2f2 e2c2A2|d6 d4A2|
d2c2d2 f2e2d2|e2g2f2 e4A2|a4a2 g2e2c2|d2f2d2 e4A2|d2c2d2 f2e2d2|e2g2f2 e4A2|f2a2f2 e2c2A2|d6 d4A2|
a4a2 g2e2c2|f4f2 e2c2A2|d4d2 d2e2f2|g2f2d2 e4A2|a4a2 g2e2c2|f4f2 e2c2A2|f2a2f2 e2c2A2|d6 d4A2|
a4a2 g2e2c2|f4f2 e2c2A2|d4d2 d2e2f2|g2f2d2 e4A2|A2d2d2 c2e2e2|d2f2f2 e4A2|a4a2 g2e2c2|d6 d4||
